svgs/solid/chart-gantt.svg

<svg xmlns="http://www.w3.org/2000/svg" viewBox="0 0 512 512"><!--! Font Awesome Pro 6.4.2 by @fontawesome - https://fontawesome.com License - https://fontawesome.com/license (Commercial License) Copyright 2023 Fonticons, Inc. --><path d="M32 32c17.7 0 32 14.3 32 32V400c0 8.8 7.2 16 16 16H480c17.7 0 32 14.3 32 32s-14.3 32-32 32H80c-44.2 0-80-35.8-80-80V64C0 46.3 14.3 32 32 32zm96 96c0-17.7 14.3-32 32-32l96 0c17.7 0 32 14.3 32 32s-14.3 32-32 32H160c-17.7 0-32-14.3-32-32zm96 64H352c17.7 0 32 14.3 32 32s-14.3 32-32 32H224c-17.7 0-32-14.3-32-32s14.3-32 32-32zm160 96h64c17.7 0 32 14.3 32 32s-14.3 32-32 32H384c-17.7 0-32-14.3-32-32s14.3-32 32-32z"/></svg>

<svg xmlns="http://www.w3.org/2000/svg" viewBox="0 0 512 512"><!--! Font Awesome Pro 6.1.1 by @fontawesome - https://fontawesome.com License - https://fontawesome.com/license (Commercial License) Copyright 2022 Fonticons, Inc. --><path d="M32 32C49.67 32 64 46.33 64 64V400C64 408.8 71.16 416 80 416H480C497.7 416 512 430.3 512 448C512 465.7 497.7 480 480 480H80C35.82 480 0 444.2 0 400V64C0 46.33 14.33 32 32 32zM128 128C128 110.3 142.3 96 160 96H256C273.7 96 288 110.3 288 128C288 145.7 273.7 160 256 160H160C142.3 160 128 145.7 128 128zM352 192C369.7 192 384 206.3 384 224C384 241.7 369.7 256 352 256H224C206.3 256 192 241.7 192 224C192 206.3 206.3 192 224 192H352zM448 288C465.7 288 480 302.3 480 320C480 337.7 465.7 352 448 352H384C366.3 352 352 337.7 352 320C352 302.3 366.3 288 384 288H448z"/></svg>
